outputs/icons/device/antenna_sharp.svg

<svg xmlns="http://www.w3.org/2000/svg" width="1200" height="1200" fill="none"><g fill="#000" clip-path="url(#a)"><path d="m283.945 123.04-.096-.097.096-.096z"/><path d="M283.849 122.943 211.034 50a549.951 549.951 0 0 0 0 777.66l72.911-72.91a446.832 446.832 0 0 1-.096-631.807M988.785 50.108l-72.91 73.039a446.84 446.84 0 0 1 130.865 315.951A446.85 446.85 0 0 1 915.875 755.05l72.91 72.91a549.943 549.943 0 0 0 0-777.659z"/><path d="m770.05 268.87 72.91-72.911A343.73 343.73 0 0 1 943.63 439a343.73 343.73 0 0 1-100.67 243.04l-72.91-72.91A240.6 240.6 0 0 0 840.515 439a240.6 240.6 0 0 0-70.465-170.13M356.864 195.959a343.72 343.72 0 0 0 0 486.081l72.911-72.91a240.61 240.61 0 0 1 0-340.26zM516.23 329.918a137.48 137.48 0 0 1 83.68-28.416 137.48 137.48 0 0 1 83.685 28.416 137.5 137.5 0 0 1 49.1 73.484c7.83 29.23 5.8 60.228-5.78 88.188a137.5 137.5 0 0 1-58.26 66.455v591.965H531.17V558.045a137.493 137.493 0 0 1-64.039-154.643 137.5 137.5 0 0 1 49.099-73.484"/></g><defs><clipPath id="a"><path fill="#fff" d="M0 0h1200v1200H0z"/></clipPath></defs></svg>

<svg width="1200" height="1200" viewBox="0 0 1200 1200" fill="none" xmlns="http://www.w3.org/2000/svg"><g clip-path="url(#clip0_833_2269)"><path fill-rule="evenodd" d="M283.945 123.04L283.849 122.943L283.945 122.847V123.04ZM283.849 122.943L211.034 50C107.924 153.131 50 292.995 50 438.83C50 584.665 107.924 724.525 211.034 827.66L283.945 754.75C200.152 670.95 153.078 557.3 153.078 438.798C153.078 320.339 200.116 206.731 283.849 122.943ZM988.785 50.108L915.875 123.147C999.665 206.944 1046.74 320.594 1046.74 439.098C1046.74 557.6 999.665 671.25 915.875 755.05L988.785 827.96C1091.895 724.83 1149.82 584.965 1149.82 439.13C1149.82 293.296 1091.895 153.433 988.785 50.301V50.108ZM770.05 268.87L842.96 195.959C907.415 260.418 943.63 347.842 943.63 439C943.63 530.155 907.415 617.58 842.96 682.04L770.05 609.13C815.17 564.005 840.515 502.81 840.515 439C840.515 375.189 815.17 313.991 770.05 268.87ZM356.864 195.959C292.408 260.418 256.196 347.842 256.196 439C256.196 530.155 292.408 617.58 356.864 682.04L429.775 609.13C384.654 564.005 359.307 502.81 359.307 439C359.307 375.189 384.654 313.991 429.775 268.87L356.864 195.959ZM516.23 329.918C540.235 311.495 569.65 301.506 599.91 301.502C630.175 301.506 659.59 311.495 683.595 329.918C707.6 348.342 724.86 374.172 732.695 403.402C740.525 432.632 738.495 463.63 726.915 491.59C715.34 519.55 694.86 542.905 668.655 558.045V1150.01H531.17V558.045C504.965 542.905 484.485 519.55 472.907 491.59C461.329 463.63 459.299 432.632 467.131 403.402C474.964 374.172 492.222 348.342 516.23 329.918Z" fill="#1D1E23"/></g><defs><clipPath id="clip0_833_2269"><path width="24" fill="white" d="M0 0H1200V1200H0V0z"/></clipPath></defs></svg>
